netbox/static/netbox/icons/nc.svg

<?xml version="1.0" encoding="utf-8"?>
<!-- Generator: Adobe Illustrator 22.0.1, SVG Export Plug-In . SVG Version: 6.00 Build 0)  -->
<svg version="1.1" id="Layer_1" xmlns="http://www.w3.org/2000/svg" xmlns:xlink="http://www.w3.org/1999/xlink" x="0px" y="0px"
	 viewBox="0 0 56 56" style="enable-background:new 0 0 56 56;" xml:space="preserve">
<path d="M28.1,5.5c-6.2,0-11.5,2.2-15.8,6.6c-1.1,1.1-2.1,2.3-3,3.7l10.5,4.7c0.5-1.4,1.3-2.6,2.6-3.5c1.3-0.9,2.8-1.3,4.5-1.4v-4.2
	h3.2v4.2c2.5,0.1,4.8,1,6.9,2.6l-3.6,3.7c-1.5-1.1-3.1-1.6-4.7-1.6c-0.9,0-1.6,0.2-2.3,0.5c-0.7,0.3-1,0.9-1,1.7
	c0,0.2,0.1,0.5,0.2,0.7l3.5,1.6l2.4,1.1l4.4,2L49.8,34c0.5-1.9,0.7-3.9,0.7-5.9c0-6.3-2.2-11.6-6.6-15.9C39.6,7.7,34.3,5.5,28.1,5.5
	 M6.7,20.7c-0.8,2.3-1.2,4.7-1.2,7.4c0,6.1,2.2,11.4,6.7,15.8c4.5,4.4,9.8,6.6,15.9,6.6c6.2,0,11.5-2.2,16-6.7
	c1.6-1.5,2.9-3.1,3.8-4.8l-10.4-4.6c-0.4,1.7-1.2,3.1-2.6,4.2c-1.4,1.1-3,1.7-4.9,1.9v4.2h-3.2v-4.2c-3,0-5.8-1.1-8.3-3.3l3.8-3.8
	c1.8,1.7,3.8,2.5,6.1,2.5c0.9,0,1.8-0.2,2.4-0.6c0.7-0.4,1-1.1,1-2.1c0-0.7-0.2-1.2-0.7-1.7l-2.6-1.1l-3.2-1.5l-4.4-1.9L6.7,20.7z
	 M28,0.6c7.7,0,14.2,2.7,19.5,7.9c5.3,5.3,8,11.8,8,19.5s-2.6,14.1-7.9,19.3c-5.6,5.5-12.1,8.2-19.7,8.2c-7.5,0-13.9-2.7-19.3-8.1
	C3.2,42,0.5,35.6,0.5,28.1c0-7.5,2.7-14,8.1-19.5C13.9,3.2,20.4,0.6,28,0.6z"/>
</svg>

<?xml version="1.0" encoding="UTF-8"?>
<svg width="56px" height="56px" viewBox="0 0 56 56" version="1.1" xmlns="http://www.w3.org/2000/svg" xmlns:xlink="http://www.w3.org/1999/xlink">
    <!-- Generator: Sketch 59 (86127) - https://sketch.com -->
    <title>Shape</title>
    <desc>Created with Sketch.</desc>
    <g id="Page-1" stroke="none" stroke-width="1" fill="none" fill-rule="evenodd">
        <g id="chevron" transform="translate(-852.000000, -191.000000)" fill="#000000" fill-rule="nonzero">
            <g id="sa">
                <g id="stories-of-change">
                    <g id="tools-and-methods" transform="translate(66.000000, 191.000000)">
                        <g id="nc" transform="translate(786.000000, 0.000000)">
                            <path d="M28.1,5.5 C21.9,5.5 16.6,7.7 12.3,12.1 C11.2,13.2 10.2,14.4 9.3,15.8 L19.8,20.5 C20.3,19.1 21.1,17.9 22.4,17 C23.7,16.1 25.2,15.7 26.9,15.6 L26.9,11.4 L30.1,11.4 L30.1,15.6 C32.6,15.7 34.9,16.6 37,18.2 L33.4,21.9 C31.9,20.8 30.3,20.3 28.7,20.3 C27.8,20.3 27.1,20.5 26.4,20.8 C25.7,21.1 25.4,21.7 25.4,22.5 C25.4,22.7 25.5,23 25.6,23.2 L29.1,24.8 L31.5,25.9 L35.9,27.9 L49.8,34 C50.3,32.1 50.5,30.1 50.5,28.1 C50.5,21.8 48.3,16.5 43.9,12.2 C39.6,7.7 34.3,5.5 28.1,5.5 M6.7,20.7 C5.9,23 5.5,25.4 5.5,28.1 C5.5,34.2 7.7,39.5 12.2,43.9 C16.7,48.3 22,50.5 28.1,50.5 C34.3,50.5 39.6,48.3 44.1,43.8 C45.7,42.3 47,40.7 47.9,39 L37.5,34.4 C37.1,36.1 36.3,37.5 34.9,38.6 C33.5,39.7 31.9,40.3 30,40.5 L30,44.7 L26.8,44.7 L26.8,40.5 C23.8,40.5 21,39.4 18.5,37.2 L22.3,33.4 C24.1,35.1 26.1,35.9 28.4,35.9 C29.3,35.9 30.2,35.7 30.8,35.3 C31.5,34.9 31.8,34.2 31.8,33.2 C31.8,32.5 31.6,32 31.1,31.5 L28.5,30.4 L25.3,28.9 L20.9,27 L6.7,20.7 Z M28,0.6 C35.7,0.6 42.2,3.3 47.5,8.5 C52.8,13.8 55.5,20.3 55.5,28 C55.5,35.7 52.9,42.1 47.6,47.3 C42,52.8 35.5,55.5 27.9,55.5 C20.4,55.5 14,52.8 8.6,47.4 C3.2,42 0.5,35.6 0.5,28.1 C0.5,20.6 3.2,14.1 8.6,8.6 C13.9,3.2 20.4,0.6 28,0.6 Z" id="Shape"></path>
                        </g>
                    </g>
                </g>
            </g>
        </g>
    </g>
</svg>
